packages/icon/src/svg/code.icon.svg

<svg role="img" aria-label="code icon" xmlns="http://www.w3.org/2000/svg" viewBox="0 0 24 24">
  <path fill-rule="evenodd" d="M14.2663,4.31144 L15.206,4.65348 C15.4655,4.7479 15.5993,5.03482 15.5048,5.29435 L10.3746,19.3897 C10.2801,19.6492 9.99324,19.783 9.73372,19.6886 L8.79402,19.3465 C8.5345,19.2521 8.40071,18.9652 8.49519,18.7057 L13.6256,4.61026 C13.7199,4.3508 14.0069,4.21701 14.2663,4.31144 Z M16.0574,15.3554 L16.8546,16.1479 C17.0502,16.3424 17.3665,16.3416 17.5612,16.1462 L21.3493,12.3442 C21.544,12.1488 21.5437,11.8326 21.3485,11.6375 L17.5603,7.85306 C17.3651,7.65799 17.0488,7.65799 16.8536,7.853 L16.0583,8.64737 C15.863,8.8425 15.8627,9.15909 16.0583,9.35483 L18.7004,11.9939 L16.0559,14.6479 C15.8609,14.8435 15.8614,15.1601 16.0574,15.3554 Z M7.35066,16.1479 L8.14778,15.3554 C8.3437,15.1601 8.34432,14.8435 8.14937,14.6479 L5.50472,11.9939 L8.14681,9.35483 C8.34236,9.15909 8.34224,8.8425 8.14681,8.64737 L7.35164,7.853 C7.15633,7.65799 6.84004,7.65799 6.64485,7.85306 L2.85664,11.6375 C2.66145,11.8326 2.66109,12.1488 2.85579,12.3442 L6.64388,16.1462 C6.8387,16.3416 7.15498,16.3424 7.35066,16.1479 Z"/>
</svg>

<svg aria-label="code icon" viewBox="0 0 24 24"><path fill-rule="evenodd" d="M14.266 4.311l.94.342a.5.5 0 01.299.641l-5.13 14.096a.5.5 0 01-.641.299l-.94-.343a.5.5 0 01-.299-.64l5.13-14.096a.5.5 0 01.641-.299zm1.791 11.044l.798.793a.5.5 0 00.706-.002l3.788-3.802a.5.5 0 000-.707L17.56 7.853a.5.5 0 00-.706 0l-.796.794a.5.5 0 000 .708l2.642 2.639-2.644 2.654a.5.5 0 00.001.707zm-8.706.793l.797-.793a.5.5 0 00.001-.707l-2.644-2.654 2.642-2.64a.5.5 0 000-.707l-.795-.794a.5.5 0 00-.707 0l-3.788 3.784a.5.5 0 00-.001.707l3.788 3.802a.5.5 0 00.707.002z"/></svg>
